!!!Genre:	Gas-nign
!!!Mode:	Freygish
!!!Listening/dance:	listening
!!!:	*g:
!!!One_Mode:	no
**kern
*I"P1
*clefG2
*k[b-e-a-]
*G:frey
*M2/4
*>A
=1
8g~L
8a-~
8bn~
8cc~J
=2
8ddL
8ee-J
(16ff#XLL
16aanJ
8ggJ)
=3
4.dd
16ffnLL
16ee-JJ
=4
8ddL
8ccJ
4bn
=5
8gL
8gg
8ff#X
8ggJ
=6
(16aanLL
16ggJ)
8ff#X'J
(16ee-LL
16ddJ)
8cc'J
=7
4.dd
16ffnLL
16ee-JJ
=8
8ddL
8ccJ
4bn
=9:|!|:
*>B
(16.ff#XLL
32aanJk)
8ggJ
(16.ee-LL
32ggJk)
8ff#J
=10
(16.ddLL
32ff#XJk)
8ee-XJ
(16.ccLL
32ee-Jk)
8ddJ
=11
(16.bnLL
32ddJk)
8ccJ
16ffnLL
16ee-
16dd
16ccJJ
=12
4bn
16a-LL
16gJ
8fnJ
=13
8fL
16ffL
16ee-JJ
8ddL
8ccJ
=14
(16.bnLL
32ddJk)
8cc'J
(16.a-LL
32ccJk)
8b'J
=15
2g
*>B1
=16
2gg
*>B2
=17:|!
2G
*>bM
*c:dor
=18||
*>C
(16ff#XLL
16aanJ)
8gg'J
4g
=19
(16ff#XLL
16aanJ)
8gg'J
4g
=20
8ff#XL
8ggJ
8aantL
8ggJ
=21
4ff#X
((8qff#/
16ee-LL)
16ddJ)
8ccJ
=22
(16ddLL
16ff#XJ
8ee-J)
(16ddLL
16ff#J
8ee-J)
=23
8ff#XL
(8qdd/
8ggJ)
(8qgg/
8ff#L)
8ee-J
=24
2dd
=25
2gg
*>eM
==
*-
